public/img/service/medium.svg

<svg xmlns="http://www.w3.org/2000/svg" width="200" height="200" viewBox="0 0 200 200"><path fill="#fff" d="M.001 0v200h200v-200h-200zm148.912 72.752h-3.869c-1.437 0-3.095 1.879-3.095 3.206v48.081c0 1.328 1.658 3.316 3.095 3.316h3.869v11.164h-34.708v-11.164h6.964v-50.513h-.332l-17.133 61.677h-13.265l-16.911-61.677h-.332v50.513h7.295v11.164h-29.402v-11.164h3.758c1.548 0 3.206-1.988 3.206-3.316v-48.081c0-1.327-1.658-3.206-3.206-3.206h-3.758v-11.606h36.697l12.048 44.877h.332l12.16-44.877h36.587v11.606z"/></svg>

<?xml version="1.0" encoding="utf-8"?>
<!-- Generator: Adobe Illustrator 15.1.0, SVG Export Plug-In . SVG Version: 6.00 Build 0)  -->
<!DOCTYPE svg PUBLIC "-//W3C//DTD SVG 1.1//EN" "http://www.w3.org/Graphics/SVG/1.1/DTD/svg11.dtd">
<svg version="1.1" id="Layer_1" xmlns="http://www.w3.org/2000/svg" xmlns:xlink="http://www.w3.org/1999/xlink" x="0px" y="0px"
	 width="200px" height="200px" viewBox="0 0 200 200" enable-background="new 0 0 200 200" xml:space="preserve">
<g>
	<path fill="#FFFFFF" d="M0.001,0v200h200V0H0.001z M148.913,72.752h-3.869c-1.437,0-3.095,1.879-3.095,3.206v48.081
		c0,1.328,1.658,3.316,3.095,3.316h3.869v11.164h-34.708v-11.164h6.964V76.842h-0.332l-17.133,61.677H90.439L73.528,76.842h-0.332
		v50.513h7.295v11.164H51.089v-11.164h3.758c1.548,0,3.206-1.988,3.206-3.316V75.958c0-1.327-1.658-3.206-3.206-3.206h-3.758V61.146
		h36.697l12.048,44.877h0.332l12.16-44.877h36.587V72.752z"/>
</g>
</svg>
